X: 1
T: Kas A Barh
Z: Chris Rudd
S: https://thesession.org/tunes/16112#setting30373
R: reel
M: 4/4
L: 1/8
K: Amin
B B/A/G G/A/|Bc BA2 |B B/A/G G/A/|Bc A2 :|
G>Bdd |cBAG| G>Bdd| [1 cBA2 :| [2 A>^fg2 :|
A>c ee | d c/d/c B2|A>c ee| dc/d/B2:|
d>d cA|Bc BA |d>d cA| Bc A2:|
cc/d/ed|cAe2| cc/d/ed|cAe2:|
c>de/ c>de/|d/e/d/c/AG|c>de/ c>de/|d/e/d/B/c:|
B B/A/G G/A/|Bc BA2 |B B/A/G G/A/|Bc A2 :|
G>Bdd |cBAG| G>Bdd| [1 cBA2 :| [2 A>^fg2 :|
